resources/haticons/SVG/http.svg

<!-- Generated by IcoMoon.io -->
<svg version="1.1" xmlns="http://www.w3.org/2000/svg" width="24" height="24" viewBox="0 0 24 24">
<title>http</title>
<path d="M21.516 11.484v-0.984h-2.016v0.984h2.016zM21.516 9q0.609 0 1.055 0.445t0.445 1.055v0.984q0 0.609-0.445 1.055t-1.055 0.445h-2.016v2.016h-1.5v-6h3.516zM12.516 10.5v-1.5h4.5v1.5h-1.5v4.5h-1.5v-4.5h-1.5zM6.984 10.5v-1.5h4.5v1.5h-1.5v4.5h-1.5v-4.5h-1.5zM4.5 11.016v-2.016h1.5v6h-1.5v-2.484h-2.016v2.484h-1.5v-6h1.5v2.016h2.016z"></path>
</svg>

<svg xmlns="http://www.w3.org/2000/svg" width="24" height="24"><path d="M21.516 11.484V10.5H19.5v.984h2.016zm0-2.484q.609 0 1.055.445t.445 1.055v.984q0 .609-.445 1.055t-1.055.445H19.5V15H18V9h3.516zm-9 1.5V9h4.5v1.5h-1.5V15h-1.5v-4.5h-1.5zm-5.532 0V9h4.5v1.5h-1.5V15h-1.5v-4.5h-1.5zm-2.484.516V9H6v6H4.5v-2.484H2.484V15h-1.5V9h1.5v2.016H4.5z"/></svg>
